symbols/web/event_note/materialsymbolssharp/event_note_fill1_24px.svg

<svg xmlns="http://www.w3.org/2000/svg" height="24" width="24"><path d="M7 14v-2h10v2Zm0 4v-2h7v2Zm-4 4V4h3V2h2v2h8V2h2v2h3v18Zm2-2h14V10H5Z"/></svg>

<svg xmlns="http://www.w3.org/2000/svg" height="24" width="24"><path d="M7 14V12H17V14ZM7 18V16H14V18ZM3 22V4H6V2H8V4H16V2H18V4H21V22ZM5 20H19V10H5Z"/></svg>
